src/icons/no-newline.svg

<svg width="16" height="16" viewBox="0 0 16 16" fill="none" xmlns="http://www.w3.org/2000/svg">
<path fill-rule="evenodd" clip-rule="evenodd" d="M2.33415 5.50559C2.82749 5.17595 3.40751 5 4.00086 5C4.79651 5 5.55957 5.31607 6.12218 5.87868C6.68479 6.44129 7.00086 7.20435 7.00086 8C7.00086 8.59334 6.82491 9.17336 6.49526 9.66671C6.16562 10.1601 5.69708 10.5446 5.14891 10.7716C4.60073 10.9987 3.99753 11.0581 3.41559 10.9424C2.83364 10.8266 2.29909 10.5409 1.87954 10.1213C1.45998 9.70176 1.17426 9.16721 1.0585 8.58527C0.942744 8.00333 1.00215 7.40013 1.22922 6.85195C1.45628 6.30377 1.8408 5.83524 2.33415 5.50559ZM5.01086 6.283C4.70563 6.09986 4.3568 6.00212 4.00086 6C3.64813 5.9979 3.3012 6.08968 2.99567 6.26593C2.69013 6.44218 2.43698 6.69655 2.26221 7.00294C2.08744 7.30932 1.99733 7.65669 2.00114 8.0094C2.00494 8.36211 2.10252 8.70745 2.28386 9.01L5.01086 6.283ZM2.99086 9.717C3.29608 9.90014 3.64491 9.99788 4.00086 10C4.35358 10.0021 4.70051 9.91032 5.00605 9.73407C5.31158 9.55782 5.56473 9.30345 5.7395 8.99706C5.91427 8.69068 6.00438 8.34331 6.00058 7.9906C5.99677 7.63789 5.89919 7.29255 5.71786 6.99L2.99086 9.717ZM14.0007 5V6.98404C14.0007 7.11665 13.948 7.24383 13.8543 7.3376C13.7605 7.43136 13.6333 7.48404 13.5007 7.48404H9.3677L11.0007 5.85104L10.2937 5.14404L8.1727 7.26504L7.75 7.68774V8.25634L10.2937 10.8L11.0007 10.093L9.3917 8.48404H13.5007C13.8985 8.48404 14.2801 8.32601 14.5614 8.0447C14.8427 7.7634 15.0007 7.38187 15.0007 6.98404V5H14.0007Z" fill="white"/>
</svg>

<svg width="16" height="16" xmlns="http://www.w3.org/2000/svg"><path fill-rule="evenodd" clip-rule="evenodd" d="M2.334 5.506a3 3 0 1 1 3.334 4.988 3 3 0 0 1-3.334-4.988zm2.677.777A1.986 1.986 0 0 0 2 8.009c.004.353.102.698.283 1.001L5.01 6.283zM2.99 9.717A1.986 1.986 0 0 0 6 7.991a1.988 1.988 0 0 0-.283-1.001L2.99 9.717zM14 5v1.984a.5.5 0 0 1-.5.5H9.368L11 5.851l-.707-.707-2.121 2.121-.423.423v.568l2.544 2.544.707-.707-1.61-1.609h4.11a1.5 1.5 0 0 0 1.5-1.5V5h-1z"/></svg>
